public/primaries/VolumeOff.svg

<svg id="Layer_1" data-name="Layer 1" xmlns="http://www.w3.org/2000/svg" width="64" height="64" viewBox="0 0 64 64">
  <defs>
    <style>
      .cls-1 {
        fill-rule: evenodd;
      }
    </style>
  </defs>
  <title>Icons 100</title>
  <path class="cls-1" d="M38.9969,14.9933V31.0662a0.9445,0.9445,0,0,1-1.6123.6671l-8.9577-8.9495a1.462,1.462,0,0,1,.0007-2.07l7.1521-7.136A2.0025,2.0025,0,0,1,38.9969,14.9933ZM18.8368,24.51l18.988,18.9709a3.9952,3.9952,0,0,1,1.1721,2.8268v2.66a2.0033,2.0033,0,0,1-3.4185,1.4156l-8.25-8.2315a4.0074,4.0074,0,0,0-2.8306-1.17H18.9868a3.0018,3.0018,0,0,1-3.0036-3V25.987a2.9489,2.9489,0,0,1,.1366-0.8909A1.64,1.64,0,0,1,18.8368,24.51Zm-8.28-13.933a2.0017,2.0017,0,0,1,2.83,0L53.4208,50.5816A2.0009,2.0009,0,0,1,50.59,53.41l-40.033-40.005A1.9992,1.9992,0,0,1,10.5572,10.5767Z"/>
</svg>

<svg id="Layer_1" data-name="Layer 1" xmlns="http://www.w3.org/2000/svg" width="64" height="64" viewBox="0 0 64 64"><defs><style>.cls-1{fill-rule:evenodd}</style></defs><title>Icons 100</title><path class="cls-1" d="M38.997 14.993v16.073a.945.945 0 0 1-1.612.667l-8.958-8.95a1.462 1.462 0 0 1 0-2.07l7.153-7.135a2.002 2.002 0 0 1 3.417 1.415zm-20.16 9.517l18.988 18.97a3.995 3.995 0 0 1 1.172 2.828v2.66a2.003 2.003 0 0 1-3.419 1.415l-8.25-8.231a4.007 4.007 0 0 0-2.83-1.17h-5.511a3.002 3.002 0 0 1-3.004-3V25.987a2.949 2.949 0 0 1 .137-.89 1.64 1.64 0 0 1 2.717-.587zm-8.28-13.933a2.002 2.002 0 0 1 2.83 0L53.42 50.582a2 2 0 0 1-2.831 2.828L10.557 13.405a2 2 0 0 1 0-2.828z"/></svg>
